X:1
T:Gen Longstreet's -- Reel
R:reel
C:FRANK LIVINGSTON.
N:318
B:Ryan's Mammoth Collection
Z:Contributed by Ray Davies,  ray:davies99.freeserve.co.uk
M:2/4
L:1/16
K:D
vD2F2A2d2 | {g}fefb afdf | gdBg fdAf | efge cAGE |
D2F2A2d2 | {g}fefb afdf | gdBg fdAf | eage d2z2 :|
|:vafdf AdFA | bgdg BdGB | afdf AdFA | gecA gecA |
afdf AdFA | bgdg BdGB | cbag fedc | d2f2d2 z2 :|
